X: 34968
T: Rod's Doorway
R: reel
M: 4/4
K: Bminor
FB B/B/B BcdB|cffe fecA|BAFE D2 F/E/D|EAAB cefe|
fBBf cBdB|caaf gecA|dFFE D2 F/E/D|EAAB cefe|
B2 FB BcdB|cffe fecA|BAFE D2 F/E/D|EAAB cefe|
fBBf cBdB|caaf gecA|dFFE D2 F/E/D|EAAB cegf|
|:e2 de cAGB|AGAG EDCE|DF F/F/F Aceg|fdge fagf|
e2 de cAGB|AGAG EDCE|DF F/F/F Aceg|1 faaf gfef:|2 fddc d4||

